X: 36
T:Off to California
R:hornpipe
C:Trad
M:4/4
L:1/8
K:G
(3DEF | GFGB AGED| GBdg e2 (3def | gfgd edBG | ABAG E2 (3DEF |
      | GFGB AGED| GBdg e2 (3def | gfgd edBG | AcBA G2:| 
(3def | gfeg fedf| edef edBd | gfgd edBG | ABAG E2 (3DEF |
      | GFGB AGED|GBdg e2 (3def | gfgd edBG | AcBA G2 :|
